X:1
T:Jack Coughlan's Fancy
L:1/8
M:4/4
I:linebreak $
K:G
V:1 treble 
V:1
 c2 BA G3 B | AE E2 GEDG | cABA G2 ge |1 dBAc BGGB :|2 dBAc BGGE |: DB,DE G3 B |$ AGAB dedB |1 %7
 dBde g3 e | dBAc BGGE :|2 dBde gage | dBAc BGGB || %11
